SF_Symbols/paperplane.fill.svg

<?xml version="1.0" encoding="UTF-8"?>
<svg xmlns="http://www.w3.org/2000/svg" xmlns:xlink="http://www.w3.org/1999/xlink" width="24" height="24" viewBox="0 0 24 24" version="1.1">
<g id="surface1">
<path style=" stroke:none;fill-rule:nonzero;fill:rgb(100%,100%,100%);fill-opacity:1;" d="M 14.394531 23.890625 C 14.789062 23.890625 15.132812 23.730469 15.417969 23.414062 C 15.707031 23.097656 15.953125 22.675781 16.15625 22.148438 L 23.382812 3.277344 C 23.476562 3.019531 23.550781 2.78125 23.601562 2.558594 C 23.660156 2.339844 23.691406 2.132812 23.691406 1.941406 C 23.691406 1.582031 23.589844 1.296875 23.382812 1.09375 C 23.175781 0.886719 22.894531 0.78125 22.53125 0.78125 C 22.347656 0.78125 22.144531 0.8125 21.914062 0.871094 C 21.695312 0.921875 21.457031 0.996094 21.199219 1.09375 L 2.226562 8.359375 C 1.765625 8.535156 1.375 8.769531 1.058594 9.054688 C 0.742188 9.34375 0.585938 9.683594 0.585938 10.082031 C 0.585938 10.589844 0.757812 10.957031 1.101562 11.183594 C 1.449219 11.40625 1.886719 11.59375 2.414062 11.757812 L 8.371094 13.566406 C 8.722656 13.675781 9.015625 13.71875 9.242188 13.699219 C 9.46875 13.667969 9.707031 13.542969 9.949219 13.324219 L 22.046875 2.019531 C 22.113281 1.953125 22.183594 1.921875 22.257812 1.929688 C 22.339844 1.929688 22.40625 1.957031 22.46875 2.007812 C 22.527344 2.058594 22.554688 2.125 22.554688 2.207031 C 22.554688 2.285156 22.523438 2.359375 22.457031 2.425781 L 11.195312 14.570312 C 10.980469 14.796875 10.859375 15.027344 10.832031 15.253906 C 10.800781 15.472656 10.839844 15.769531 10.941406 16.136719 L 12.695312 21.960938 C 12.855469 22.511719 13.050781 22.96875 13.28125 23.339844 C 13.507812 23.707031 13.878906 23.890625 14.394531 23.890625 Z M 14.394531 23.890625 "/>
</g>
</svg>

<svg xmlns="http://www.w3.org/2000/svg" width="24" height="24"><path style="stroke:none;fill-rule:nonzero;fill:#fff;fill-opacity:1" d="M14.395 23.89c.394 0 .738-.16 1.023-.476.289-.316.535-.738.738-1.266l7.227-18.87c.094-.258.168-.497.219-.72.058-.218.09-.425.09-.617 0-.359-.102-.644-.31-.847-.206-.207-.487-.313-.85-.313a2.561 2.561 0 0 0-.618.09c-.242.059-.48.133-.715.223L2.227 8.359c-.461.176-.852.41-1.168.696-.317.289-.473.629-.473 1.027 0 .508.172.875.516 1.102.347.222.785.41 1.312.574l5.957 1.808c.352.11.645.153.871.133.227-.031.465-.156.707-.375L22.047 2.02c.066-.067.137-.098.21-.09a.32.32 0 0 1 .212.078c.058.05.09.125.086.199a.293.293 0 0 1-.098.219L11.195 14.57c-.215.227-.336.457-.363.684-.031.219.008.516.11.883l1.753 5.824c.16.55.356 1.008.586 1.379.227.367.598.55 1.114.55Zm0 0"/></svg>
